X: 1
T:An Dro
C:TUD
M:4/4
L:1/8
K:G
G2AG F2E2|B2A2 BcB2|G2AG F2E2|BcBA B4:|\
|:G2AG F3E|G2EE ^DEF2|G2AG FAGF|E^DEF E4:|
